Adwaita++-Light/panel/22/gpm-hibernate.svg

<svg height="22" width="22" xmlns="http://www.w3.org/2000/svg">
  <path d="m3.0195312 3.9863281c-1.3498276-.025941-1.3637277 2.0074845-.0136718 2v10.9999999c-.0190517 1.34715 2.001478 1.350514 1.9980468.013672h-.0039062v-12.0429688c-.0164071-.5379404-.4522336-.9706489-.9941406-.9707031zm2.9804688 1v10.9999999h1.0058594v1.273438c0 .726801.7265625.726562.7265625.726562h.2734375 1v-2h1.9999996v1.996094h2v-1.996094h2v1.998047h1 .273438s.726562.000239.726562-.726563v-1.271484h.300782c.3878 0 .699218-.306348.699218-.6875v-9.6249999c0-.381152-.311418-.6875-.699218-.6875zm2.0058594 2h3.9999996c.838869-.0003499 1.305407.970049.78125 1.625l-2.699218 3.3749999h1.917968c1.352323-.01913 1.352323 2.019125 0 2h-3.9999996c-.838869.00035-1.3054069-.970049-.78125-1.625l2.6992187-3.3749999h-1.9179687c-1.3523227.019125-1.3523227-2.0191252 0-2zm6.5078126 0h1.992187c.399294.0000852.637437.4450668.416016.7773438l-1.476563 2.2226562h1.060547c.676138-.00954.676138 1.0095379 0 .9999999h-1.992187c-.400178.0015-.639885-.44433-.417969-.777344l1.476563-2.2226559h-1.058594c-.676161.00956-.676161-1.0095626 0-1z" fill="#444"/>
</svg>

<svg xmlns="http://www.w3.org/2000/svg" width="22" height="22" version="1.1">
 <defs>
  <style id="current-color-scheme" type="text/css">
   .ColorScheme-Text { color:#444444; } .ColorScheme-Highlight { color:#4285f4; }
  </style>
 </defs>
 <path style="fill:currentColor" class="ColorScheme-Text" d="M 3.0195312 3.9863281 C 1.6697036 3.9603871 1.6558035 5.9938126 3.0058594 5.9863281 L 3.0058594 16.986328 C 2.9868077 18.333478 5.0073374 18.336842 5.0039062 17 L 5 17 L 5 4.9570312 C 4.9835929 4.4190908 4.5477664 3.9863823 4.0058594 3.9863281 L 3.0195312 3.9863281 z M 6 4.9863281 L 6 15.986328 L 7.0058594 15.986328 L 7.0058594 17.259766 C 7.0058594 17.986567 7.7324219 17.986328 7.7324219 17.986328 L 8.0058594 17.986328 L 9.0058594 17.986328 L 9.0058594 15.986328 L 11.005859 15.986328 L 11.005859 17.982422 L 13.005859 17.982422 L 13.005859 15.986328 L 15.005859 15.986328 L 15.005859 17.984375 L 16.005859 17.984375 L 16.279297 17.984375 C 16.279297 17.984375 17.005859 17.984614 17.005859 17.257812 L 17.005859 15.986328 L 17.306641 15.986328 C 17.694441 15.986328 18.005859 15.67998 18.005859 15.298828 L 18.005859 5.6738281 C 18.005859 5.2926761 17.694441 4.9863281 17.306641 4.9863281 L 6 4.9863281 z M 8.0058594 6.9863281 L 12.005859 6.9863281 C 12.844728 6.9859782 13.311266 7.9563771 12.787109 8.6113281 L 10.087891 11.986328 L 12.005859 11.986328 C 13.358182 11.967198 13.358182 14.005453 12.005859 13.986328 L 8.0058594 13.986328 C 7.1669904 13.986678 6.7004525 13.016279 7.2246094 12.361328 L 9.9238281 8.9863281 L 8.0058594 8.9863281 C 6.6535367 9.0054531 6.6535367 6.9672029 8.0058594 6.9863281 z M 14.513672 6.9863281 L 16.505859 6.9863281 C 16.905153 6.9864133 17.143296 7.4313949 16.921875 7.7636719 L 15.445312 9.9863281 L 16.505859 9.9863281 C 17.181997 9.9767881 17.181997 10.995866 16.505859 10.986328 L 14.513672 10.986328 C 14.113494 10.987828 13.873787 10.541998 14.095703 10.208984 L 15.572266 7.9863281 L 14.513672 7.9863281 C 13.837511 7.9958881 13.837511 6.9767655 14.513672 6.9863281 z"/>
</svg>
